X: 21583
M: C
L: 1/16
K: D
d4 d4 (defg a2).d2 | e6 e2 {fg}f4 z2A2 |\
(dede fgfg a2)e2f2e2 | (d2ef) (e2d2) c4 z4 |\
z2A2 (e2c2 a2)(^gf) (edcB) | A4 {Bc}.B4 {AB} A4 z4 |\
d4 d3A B2G2 z2d2 | g3fe2d2 c4 z2e2 |
a4 g4 (fdge a2).d2 | A4 e4 {de}d8 !segno!|:\
f4 z2f2 g2g2 z2f2 | g3fe3d c8 |\
[1 a4 g4 (fdge a2).d2 | A4 {f}e4 d8 !segno!:|\
[2 a4 g4 (fdge a2).g2 | f4 e4 d8 |]


